svgs/light/car-bus.svg

<svg xmlns="http://www.w3.org/2000/svg" viewBox="0 0 640 512"><!--! Font Awesome Pro 6.3.0 by @fontawesome - https://fontawesome.com License - https://fontawesome.com/license (Commercial License) Copyright 2023 Fonticons, Inc. --><path d="M32 256V352C32 369.7 46.33 384 64 384H224V416H64V464C64 472.8 56.84 480 48 480C39.16 480 32 472.8 32 464V407.4C12.87 396.4 0 375.7 0 352V110.2C0 88.95 4.48 62.07 25.97 45.04C54.78 22.22 107.5 0 192 0C276.5 0 329.2 22.22 358 45.04C379.5 62.07 384 88.94 384 110.2V144H380.2C370.5 144 360.1 145.5 352 148.2V128H208V224H284.9L275.8 256H32zM32.98 96H351C349.3 84.52 345.2 75.67 338.2 70.12C316.2 52.75 271 32 192 32C112.1 32 67.77 52.75 45.84 70.12C38.85 75.67 34.72 84.52 32.98 96V96zM32 128V224H176V128H32zM80 312C80 298.7 90.75 288 104 288C117.3 288 128 298.7 128 312C128 325.3 117.3 336 104 336C90.75 336 80 325.3 80 312zM312 376C312 362.7 322.7 352 336 352C349.3 352 360 362.7 360 376C360 389.3 349.3 400 336 400C322.7 400 312 389.3 312 376zM584 376C584 389.3 573.3 400 560 400C546.7 400 536 389.3 536 376C536 362.7 546.7 352 560 352C573.3 352 584 362.7 584 376zM380.2 176H515.8C544.4 176 569.5 194.9 577.3 222.4L598.1 298.1C623.4 311.8 640 337.1 640 368V496C640 504.8 632.8 512 624 512C615.2 512 608 504.8 608 496V464H287.1V496C287.1 504.8 280.8 512 271.1 512C263.2 512 255.1 504.8 255.1 496V368C255.1 337.1 272.6 311.8 297 298.1L318.7 222.4C326.5 194.9 351.6 176 380.2 176H380.2zM380.2 208C365.9 208 353.4 217.5 349.4 231.2L333.2 288C334.1 288 335.1 288 336 288H560C560.9 288 561.9 288 562.8 288L546.6 231.2C542.6 217.5 530.1 208 515.8 208H380.2zM608 368C608 341.5 586.5 320 560 320H336C309.5 320 288 341.5 288 368V432H608V368z"/></svg>

<svg xmlns="http://www.w3.org/2000/svg" viewBox="0 0 640 512"><!--! Font Awesome Pro 6.4.0 by @fontawesome - https://fontawesome.com License - https://fontawesome.com/license (Commercial License) Copyright 2023 Fonticons, Inc. --><path d="M45.8 70.1C38.8 75.7 34.7 84.5 33 96H192 351c-1.7-11.5-5.9-20.3-12.9-25.9C316.2 52.8 271 32 192 32S67.8 52.8 45.8 70.1zM32 128v96H176V128H32zm0 128v96c0 17.7 14.3 32 32 32H224v32H64l0 48c0 8.8-7.2 16-16 16s-16-7.2-16-16V407.4C12.9 396.4 0 375.7 0 352V110.2C0 88.9 4.5 62.1 26 45C54.8 22.2 107.5 0 192 0s137.2 22.2 166 45c21.5 17 26 43.9 26 65.2V144h-3.8c-9.8 0-19.2 1.5-28.2 4.2V128H208v96h76.9l-9.1 32H192 32zm72 32a24 24 0 1 1 0 48 24 24 0 1 1 0-48zm276.2-80c-14.3 0-26.8 9.5-30.8 23.2L333.2 288c.9 0 1.9 0 2.8 0H560c.9 0 1.9 0 2.8 0l-16.2-56.8c-3.9-13.7-16.5-23.2-30.8-23.2H380.2zm-61.5 14.4c7.8-27.5 33-46.4 61.5-46.4H515.8c28.6 0 53.7 18.9 61.5 46.4L599 298.1c24.5 13.7 41 39.9 41 69.9v48 16 32 32c0 8.8-7.2 16-16 16s-16-7.2-16-16V464H288v32c0 8.8-7.2 16-16 16s-16-7.2-16-16V464 432 416 368c0-30 16.6-56.2 41-69.9l21.6-75.7zM608 416V368c0-26.5-21.5-48-48-48H336c-26.5 0-48 21.5-48 48v48 16H608V416zM336 352a24 24 0 1 1 0 48 24 24 0 1 1 0-48zm200 24a24 24 0 1 1 48 0 24 24 0 1 1 -48 0z"/></svg>
